src/img/trip-last.svg

<svg fill="none" height="24" viewBox="0 0 24 24" width="24" xmlns="http://www.w3.org/2000/svg" xmlns:xlink="http://www.w3.org/1999/xlink"><mask id="a" height="23" maskUnits="userSpaceOnUse" width="18" x="3" y="1"><path d="m19.6776 8.56138-.0018-.01239-.002-.01235c-.6216-3.75373-3.8622-6.51209-7.6713-6.53662v-.00008l-.0129.00008c-3.80908.02453-7.04969 2.78289-7.67124 6.53662l-.00278.01679-.00221.01687c-.19835 1.5164.0715 3.0569.77317 4.416.90041 1.8749 1.98603 3.6555 3.24072 5.3154.76817 1.0644 1.60037 2.0848 2.41534 3.0695.2884.366.718.5934 1.1828.6263l.041.0029.0411-.0005c.4991-.0057.9692-.2363 1.2788-.6278.8186-.989 1.6412-2.0071 2.4148-3.0685 1.2562-1.6617 2.343-3.4445 3.2442-5.3217.6886-1.3648.9441-2.9068.7323-4.42052z" fill="#fff" stroke="#fff" stroke-width="2"/></mask><path d="m19.6776 8.56138-.0018-.01239-.002-.01235c-.6216-3.75373-3.8622-6.51209-7.6713-6.53662v-.00008l-.0129.00008c-3.80908.02453-7.04969 2.78289-7.67124 6.53662l-.00278.01679-.00221.01687c-.19835 1.5164.0715 3.0569.77317 4.416.90041 1.8749 1.98603 3.6555 3.24072 5.3154.76817 1.0644 1.60037 2.0848 2.41534 3.0695.2884.366.718.5934 1.1828.6263l.041.0029.0411-.0005c.4991-.0057.9692-.2363 1.2788-.6278.8186-.989 1.6412-2.0071 2.4148-3.0685 1.2562-1.6617 2.343-3.4445 3.2442-5.3217.6886-1.3648.9441-2.9068.7323-4.42052z" fill="#fff" stroke="#fff" stroke-width="2"/><g mask="url(#a)"><path d="m0 0h24v24h-24z" fill="#6f6f6f"/><circle cx="12" cy="9.75" fill="#fff" r="3"/></g></svg>

<svg width="24" height="24" viewBox="0 0 24 24" fill="none" xmlns="http://www.w3.org/2000/svg">
<path d="M19.6776 8.56138L19.6758 8.54899L19.6738 8.53664C19.0522 4.78291 15.8116 2.02455 12.0025 2.00002L12.0025 1.99994L11.9896 2.00002C8.18052 2.02455 4.93991 4.78291 4.31836 8.53664L4.31558 8.55343L4.31337 8.5703C4.11502 10.0867 4.38487 11.6272 5.08654 12.9863C5.98695 14.8612 7.07257 16.6418 8.32726 18.3017C9.09543 19.3661 9.92763 20.3865 10.7426 21.3712C11.031 21.7372 11.4606 21.9646 11.9254 21.9975L11.9664 22.0004L12.0075 21.9999C12.5066 21.9942 12.9767 21.7636 13.2863 21.3721C14.1049 20.3831 14.9275 19.365 15.7011 18.3036C16.9573 16.6419 18.0441 14.8591 18.9453 12.9819C19.6339 11.6171 19.8894 10.0751 19.6776 8.56138Z" fill="white" stroke="white" stroke-width="2"/>
<mask id="mask0" mask-type="alpha" maskUnits="userSpaceOnUse" x="3" y="1" width="18" height="23">
<path d="M19.6776 8.56138L19.6758 8.54899L19.6738 8.53664C19.0522 4.78291 15.8116 2.02455 12.0025 2.00002L12.0025 1.99994L11.9896 2.00002C8.18052 2.02455 4.93991 4.78291 4.31836 8.53664L4.31558 8.55343L4.31337 8.5703C4.11502 10.0867 4.38487 11.6272 5.08654 12.9863C5.98695 14.8612 7.07257 16.6418 8.32726 18.3017C9.09543 19.3661 9.92763 20.3865 10.7426 21.3712C11.031 21.7372 11.4606 21.9646 11.9254 21.9975L11.9664 22.0004L12.0075 21.9999C12.5066 21.9942 12.9767 21.7636 13.2863 21.3721C14.1049 20.3831 14.9275 19.365 15.7011 18.3036C16.9573 16.6419 18.0441 14.8591 18.9453 12.9819C19.6339 11.6171 19.8894 10.0751 19.6776 8.56138Z" fill="white" stroke="white" stroke-width="2"/>
</mask>
<g mask="url(#mask0)">
<rect width="24" height="24" fill="#6F6F6F"/>
<circle cx="12" cy="9.75" r="3" fill="white"/>
</g>
</svg>
